X: 8
T: Killeigh, The
Z: ceolachan
S: https://thesession.org/tunes/6456#setting18171
R: hornpipe
M: 4/4
L: 1/8
K: Gmaj
|: D>E |G2 A>F G2 B>d | g2 e>g d>GB>d | e>GB>d B>AG>B | (3ABA (3GFE D2 D>E |
G2 (3AGF G2 (3Bcd | (3gbg e>g d>GB>d | e>GB>d B>AG>E |[1 G2 G2 G2 :|[2 G2 G>B G2- ||
|: G>e |d>GB>d e>GB>d | g2 b>g d>GB>d | c>ec>A B>dB>G | (3ABA (3GFE D3 B |
d>G (3Bcd e>G (3Bcd | (3gbg b>g d>GB>d | E>G (3Bcd B>AG>E |[1 G2 G2 G2- :|[2 G2 F2 G2 |]
